packages/astro-components-stencil/src/icons/control-point.svg

<svg xmlns="http://www.w3.org/2000/svg" viewBox="0 0 24 24"><g xmlns="http://www.w3.org/2000/svg" id="control-point" fill-rule="nonzero">
            <path d="M12 7c-.55 0-1 .45-1 1v3H8c-.55 0-1 .45-1 1s.45 1 1 1h3v3c0 .55.45 1 1 1s1-.45 1-1v-3h3c.55 0 1-.45 1-1s-.45-1-1-1h-3V8c0-.55-.45-1-1-1zm0-5C6.49 2 2 6.49 2 12s4.49 10 10 10 10-4.49 10-10S17.51 2 12 2zm0 18c-4.41 0-8-3.59-8-8s3.59-8 8-8 8 3.59 8 8-3.59 8-8 8z"/>
        </g></svg>

<svg width="24" height="24" viewBox="0 0 24 24" fill="none" xmlns="http://www.w3.org/2000/svg">
<path fill-rule="evenodd" clip-rule="evenodd" d="M12 2C6.49 2 2 6.49 2 12C2 17.51 6.49 22 12 22C17.51 22 22 17.51 22 12C22 6.49 17.51 2 12 2ZM12 7C11.45 7 11 7.45 11 8V11H8C7.45 11 7 11.45 7 12C7 12.55 7.45 13 8 13H11V16C11 16.55 11.45 17 12 17C12.55 17 13 16.55 13 16V13H16C16.55 13 17 12.55 17 12C17 11.45 16.55 11 16 11H13V8C13 7.45 12.55 7 12 7ZM4 12C4 16.41 7.59 20 12 20C16.41 20 20 16.41 20 12C20 7.59 16.41 4 12 4C7.59 4 4 7.59 4 12Z" fill="black"/>
</svg>
